X: 42638
T: Whiskey Before Breakfast
R: reel
M: 4/4
K: Dmajor
|:D2 F2 A4|ABAG FDEF|G2BG F2AF|EDEF EDB,C|
D2 F2 A4|ABAG FDEF|G2BG F2AF|EDEF D4:|
|:DFAB d2 AB|dBAF E4|e2 e2 e3 f|gfed cABc|
d2fd c2ec|BABc BAFD|G2BG F2AF|EDEF D4:|

